!!!COM:	de Orto, Marbrianus
!!!CDT:	~1460///-1529///
!!!OTL:	Ave Maria mater gratie
!!!AGN:	Motet
!!!SCT:	Ort2002
!!!SCA:	Ort2002
!!!voices:	5
**kern	**silbe	**kern	**silbe	**kern	**silbe	**kern	**silbe	**kern	**silbe
*staff5	*staff5	*staff4	*staff4	*staff3	*staff3	*staff2	*staff2	*staff1	*staff1
*Ivox	*	*Ivox	*	*Ivox	*	*Ivox	*	*Ivox	*
*I"Bassus	*	*I"Contratenor	*	*I"Tenor	*	*I"Contratenor2 	*	*I"Superius	*
*I'B	*	*I'Ct	*	*I'T	*	*I'Ct2	*	*I'S	*
*>[A,B]	*>[A,B]	*>[A,B]	*>[A,B]	*>[A,B]	*>[A,B]	*>[A,B]	*>[A,B]	*>[A,B]	*>[A,B]
*>A	*>A	*>A	*>A	*>A	*>A	*>A	*>A	*>A	*>A
*clefF4	*	*clefF4	*	*clefGv2	*	*clefGv2	*	*clefG2	*
*k[]	*	*k[]	*	*k[]	*	*k[]	*	*k[]	*
*M3/1	*	*M3/1	*	*M3/1	*	*M3/1	*	*M3/1	*
*met(O)	*	*met(O)	*	*met(O)	*	*met(O)	*	*met(O)	*
=1-	=1-	=1-	=1-	=1-	=1-	=1-	=1-	=1-	=1-
0.r	.	0.r	.	0.r	.	0e	Ave	0e	A-
.	.	.	.	.	.	1A	Ma-	2e/	-ve
.	.	.	.	.	.	.	.	2f/	.
=2	=2	=2	=2	=2	=2	=2	=2	=2	=2
0.r	.	0.r	.	0.r	.	1e	-ri-	1g	Ma-
.	.	.	.	.	.	0f	-a,	0a	-ri-
=3	=3	=3	=3	=3	=3	=3	=3	=3	=3
0.r	.	0E	A-	0.r	.	1e	.	1.g	.
.	.	.	.	.	.	1r	Ma-	.	.
.	.	.	.	.	.	.	.	2c/	.
.	.	1AA	-ve	.	.	2.E/	.	1c	-a,
.	.	.	.	.	.	4F/	.	.	.
=4	=4	=4	=4	=4	=4	=4	=4	=4	=4
0.r	.	1E	Ma-	0.r	.	1G	-ri-	0c	ma-
.	.	0F	-ri-	.	.	0A	.	.	.
.	.	.	.	.	.	.	.	1d	.
=5	=5	=5	=5	=5	=5	=5	=5	=5	=5
0.r	.	1E	-a,	0B	A-	1G	-a	1e	.
.	.	1G	.	.	.	2r	ma-	1d	-ter
.	.	.	.	.	.	2d\	.	.	.
.	.	1r	.	1E	-ve	2c\	-ter	2.g/	gra-
.	.	.	.	.	.	2B\	.	.	.
.	.	.	.	.	.	.	.	8f/L	.
.	.	.	.	.	.	.	.	8e/J	.
=6	=6	=6	=6	=6	=6	=6	=6	=6	=6
0.r	.	1GG	ma-	1B	Ma-	2r	gra-	1d	.
.	.	.	.	.	.	2G/	.	.	.
.	.	2.AA/	.	0c	.	2E/	.	2c/	.
.	.	.	.	.	.	2A/	.	1e	.
.	.	4BB/	.	.	.	.	.	.	.
.	.	2C/	.	.	.	2G/	.	.	.
.	.	2AA/	.	.	.	2A/	-ti-	2c/	-ti-
=7	=7	=7	=7	=7	=7	=7	=7	=7	=7
0BB	A-	1GG	-ter	2.B\	-ri-	0D	-e,	1d	-e,
.	.	.	.	4A/	.	.	.	.	.
.	.	2D\	gra-	2F#/	.	.	.	2r	.
.	.	2BB/	-ti-	2B\	.	.	.	2d/	gra-
1EE	-ve	1BB	-e,	1G	-a,	1E	.	2.g/	.
.	.	.	.	.	.	.	.	4f/	.
=8	=8	=8	=8	=8	=8	=8	=8	=8	=8
1BB	Ma-	2r	.	2r	.	1r	.	1d	.
.	.	2D\	Do-	1G	ma-	.	.	.	.
0C	-ri-	2E\	.	.	.	1r	.	2g/	.
.	.	2C/	.	2.c\	.	.	.	2e/	-ti-
.	.	1G	-mi-	.	.	2r	gra-	1e	-e,
.	.	.	.	4B\	.	.	.	.	.
.	.	.	.	4G/	.	2C/	-ti-	.	.
.	.	.	.	4A/	.	.	.	.	.
=9	=9	=9	=9	=9	=9	=9	=9	=9	=9
2BB/	-a,	2GG/	-na	1B	-ter	1.D	.	0.r	.
2EE/	ma-	1BB	glo-	.	.	.	.	.	.
2GG/	.	.	.	1r	.	.	.	.	.
2AA/	.	2C/	.	.	.	1E	-ae	.	.
1FF	.	1AA	-ri-	1r	.	.	.	.	.
.	.	.	.	.	.	2D/	.	.	.
=10	=10	=10	=10	=10	=10	=10	=10	=10	=10
1EE	-ter	2BB/	-e,	2B\	gra-	2.E/	Do-	1g	Do-
.	.	2C/	glo-	4G/	-ti-	.	.	.	.
.	.	.	.	4F/	.	4F/	-mi-	.	.
2r	.	2BB/	.	2D/	-e	2G/	-na	2g/	-mi-
2FF/	gra-	2AA/	.	2F/	Do-	2A/	.	2c/	-na
2EE/	.	2C/	.	2G/	.	1r	glo-	2g/	glo-
2DD/	-ti-	2D\	-ri-	2F/	-mi-	.	.	2a/	-ri-
=11	=11	=11	=11	=11	=11	=11	=11	=11	=11
1EE	-e,	2BB/	-e,	2E/	-na	2.e\	.	1g	-e,
.	.	2r	.	1c	glo-	.	.	.	.
.	.	.	.	.	.	4A/	.	.	.
1r	.	2E\	O	.	.	2e\	-ri-	1r	.
.	.	2D\	.	2d\	.	2f\	-e,	.	.
1EE	Do-	1E	.	1B	-ri-	1e	O	1g	O
=12	=12	=12	=12	=12	=12	=12	=12	=12	=12
1FF	-mi-	2C/	.	1A	-e,	2A/	re-	1a	.
.	.	2AA/	.	.	.	2c\	-gi-	.	.
2GG/	-na	2BB/	.	2D/	O	2B\	.	2g/	.
2AA/	glo-	1AA	.	2C/	.	2c\	-na,	2e/	.
1DD	-ri-	.	.	2D/	.	1A	.	1f	re-
.	.	2D\	re-	2F/	re-	.	.	.	.
=13	=13	=13	=13	=13	=13	=13	=13	=13	=13
1EE	-e,	2BB/	-gi-	2.G/	-gi-	1r	le-	2.e/	-gi-
.	.	2C/	.	.	.	.	.	.	.
.	.	.	.	4A/	.	.	.	4d/	.
2r	.	2GG/	.	4G/	.	2E/	.	1B	-na,
.	.	.	.	4F/	.	.	.	.	.
2GG/	O	2BB/	.	2E/	-na	2G/	-ti-	.	.
2FF/	re-	2AA/	-na,	2D/	le-	2A/	-ti-	2r	.
2EE/	-gi-	2BB/	.	[2E/	-ti-	2G/	-e	2B/	le-
=14	=14	=14	=14	=14	=14	=14	=14	=14	=14
1FF	-na,	2r	.	2E/]	.	2A/	.	4A/	-ti-
.	.	.	.	.	.	.	.	2c/	.
.	.	2AA/	le-	2D/	-ti-	2F/	O	.	.
.	.	.	.	.	.	.	.	8B/L	.
.	.	.	.	.	.	.	.	8A/J	.
1r	.	2C/	-ti-	2E/	-e,	2E/	.	1G	-ti-
.	.	2BB/	-ti-	2G/	O	2D/	.	.	.
1FF	le-	1AA	-e	2.F/	splen-	2r	splen-	2A/	-e
.	.	.	.	.	.	2A/	.	[2c/	O
.	.	.	.	4E/	.	.	.	.	.
=15	=15	=15	=15	=15	=15	=15	=15	=15	=15
1GG	-ti-	2r	.	1D	.	1G	-dor,	2c/]	.
.	.	2D\	O	.	.	.	.	2B/	splen-
2AA/	-ti-	2C/	splen-	2E/	-dor,	2r	jo-	2c/	.
2BB/	.	1BB	.	2D/	jo-	1G	-cun-	2d/	.
1EE	-e	.	.	2G/	-cun-	.	.	1e	-dor,
.	.	2C/	.	2E/	-di-	2G/	-di-	.	.
=16	=16	=16	=16	=16	=16	=16	=16	=16	=16
1FF	.	1AA	-dor,	1C	-ta-	2A/	-ta-	2r	.
.	.	.	.	.	.	2F/	-tis,	2a/	jo-
2r	.	1r	.	2E/	.	1c	.	2g/	-cun-
2AA/	O	.	.	2F/	.	.	.	2f/	-di-
2GG/	splen-	2BB/	jo-	2E/	.	2r	O	2g/	-ta-
2FF/	.	2C/	.	2F/	.	2c\	vas,	2a/	.
=17	=17	=17	=17	=17	=17	=17	=17	=17	=17
1GG	-dor,	2GG/	-cun-	2D/	-tis,	2.B\	.	1d	-tis,
.	.	2D\	-di-	1G	O	.	.	.	.
.	.	.	.	.	.	4c\	.	.	.
1r	.	2BB/	-ta-	.	.	2d\	.	1r	.
.	.	2C/	.	2E/	.	1c	.	.	.
1GG	jo-	1GG	-tis,	1D	.	.	.	1r	.
.	.	.	.	.	.	2B\	.	.	.
=18	=18	=18	=18	=18	=18	=18	=18	=18	=18
1AA	-cun-	2r	.	1C	vas,	1c	.	1e	O
.	.	2C/	jo-	.	.	.	.	.	.
2BB/	-di-	2BB/	-cun-	2D/	im-	2r	im-	2d/	vas,
2C/	.	2AA/	-di-	2C/	.	1c	.	2e/	.
1FF	-ta-	1C	-ta-	1F	-men-	.	.	1a	.
.	.	.	.	.	.	2A/	-men-	.	.
=19	=19	=19	=19	=19	=19	=19	=19	=19	=19
1GG	-tis,	1BB	-tis,	1D	-sae	1d	-sae	2r	.
.	.	.	.	.	.	.	.	2g/	im-
1r	.	1r	.	1r	.	2c\	ma-	2.a/	-men-
.	.	.	.	.	.	2.d\	.	.	.
.	.	.	.	.	.	.	.	4b\	.
1r	.	1r	.	1r	.	.	.	4a/	.
.	.	.	.	.	.	4e\	.	4g/	.
.	.	.	.	.	.	4d\	.	4f/	.
.	.	.	.	.	.	4c\	.	4e/	.
=20	=20	=20	=20	=20	=20	=20	=20	=20	=20
0.r	.	0.r	.	2E/	ma-	2B\	-je-	2g/	-sae
.	.	.	.	2D/	-je-	2.d\	-sta-	1f	ma-
.	.	.	.	1G	-sta-	.	.	.	.
.	.	.	.	.	.	4B\	.	.	.
.	.	.	.	.	.	1B	.	1e	-je-
.	.	.	.	1F	.	.	.	.	.
.	.	.	.	.	.	2A/	-tis,	2d/	-sta-
=21	=21	=21	=21	=21	=21	=21	=21	=21	=21
1EE	temp-	2BB/	temp-	1E	-tis,	1B	.	1e	-tis,
.	.	2C/	.	.	.	.	.	.	.
2.EE/	-lum,	1BB	.	2r	.	1G	.	1r	.
.	.	.	.	1B	temp-	.	.	.	.
4DD/	.	.	.	.	.	.	.	.	.
2EE/	sanc-	2GG/	.	.	.	1r	.	1r	.
2FF/	.	2AA/	.	[2A/	.	.	.	.	.
=22	=22	=22	=22	=22	=22	=22	=22	=22	=22
1EE	-te,	1BB	-plum	2A/]	.	1r	tem-	1e	temp-
.	.	.	.	2G/	.	.	.	.	.
1r	.	2.D\	sanc-	2F/	.	1A	-plum	2.f/	-lum,
.	.	.	.	2D/	.	.	.	.	.
.	.	4C/	.	.	.	.	.	4g/	.
2.FF/	Tri-	1AA	-te,	1C	-lum,	1c	sanc-	1a	.
4EE/	-ni-	.	.	.	.	.	.	.	.
=23	=23	=23	=23	=23	=23	=23	=23	=23	=23
2FF/	-ta-	1r	.	2D/	sanc-	2A/	.	1r	.
2GG/	.	.	.	1E	.	2G/	.	.	.
1FF	-tis,	1AA	sanc-	.	.	2c\	.	1a	sanc-
.	.	.	.	2D/	-te,	2d\	-te,	.	.
1r	.	1C	.	2G/	Tri-	1e	.	2.g/	.
.	.	.	.	2A/	-ni-	.	.	.	.
.	.	.	.	.	.	.	.	8f/L	.
.	.	.	.	.	.	.	.	8e/J	.
=24	=24	=24	=24	=24	=24	=24	=24	=24	=24
2.GG/	Sanc-	1BB	-te,	1.B	-ta-	1r	.	1d	-te,
4DD/	.	.	.	.	.	.	.	.	.
2GG/	-to-	2r	.	.	.	1r	.	2r	.
2AA/	.	1E	Tri-	2c\	.	.	.	2c/	Tri-
1GG	-rum,	.	.	1B	-tis,	2r	Tri-	2.g/	.
.	.	2BB/	-ni-	.	.	2d\	.	.	.
.	.	.	.	.	.	.	.	4f/	-ni-
=25	=25	=25	=25	=25	=25	=25	=25	=25	=25
1r	.	2E\	-ta-	2G/	Sanc-	2c\	-ni-	2e/	-ta-
.	.	2F\	.	2.A/	.	2d\	-ta-	2d/	.
2.AA/	le-	1E	-tis,	.	.	1.e	-tis,	2c/	-tis,
.	.	.	.	4E/	.	.	.	.	.
.	.	.	.	4A/	.	.	.	2r	.
4EE/	.	.	.	4B\	.	.	.	.	.
2AA/	-ti-	2C/	Tri-	2A/	.	.	.	1r	.
2BB-i/	-ti-	2D\	-ni-	2G/	.	[2d\	.	.	.
=26	=26	=26	=26	=26	=26	=26	=26	=26	=26
1AA	-a,	1E	-ta-	1A	-to-	2d\]	Sanc-	2r	.
.	.	.	.	.	.	2c\	-to-	2e/	Sanc-
1DD	Vir-	1D	-tis,	1F	-rum,	2d\	.	2.a/	-to-
.	.	.	.	.	.	1f	-rum	.	.
.	.	.	.	.	.	.	.	4d/	.
2FF/	.	2r	.	2C/	le-	.	.	2a/	.
2GG/	-gi-	2D\	Sanc-	2G/	.	[2d\	.	2b-i\	.
=27	=27	=27	=27	=27	=27	=27	=27	=27	=27
2FF/	-num	2F\	-to-	2A/	-ti-	2d\]	le-	1a	-rum,
2AA/	.	1C	.	1F	.	2c\	-ti-	.	.
1GG	gem-	.	.	.	.	2d\	.	1r	.
.	.	2BB/	.	2E/	-ti-	4c\	.	.	.
.	.	.	.	.	.	4B\	.	.	.
1FF	-ma,	1C	-rum,	2F/	-a,	2A/	.	2.a/	le-
.	.	.	.	[2A/	le-	[2c\	.	.	.
.	.	.	.	.	.	.	.	4g/	.
=28	=28	=28	=28	=28	=28	=28	=28	=28	=28
0.r	.	0.r	.	2A/]	.	2c\]	.	2e/	.
.	.	.	.	2D/	.	2d\	.	2f/	.
.	.	.	.	1A	-ti-	2c\	-ti-	2e/	.
.	.	.	.	.	.	2A/	-a,	1a	-ti-
.	.	.	.	1B-i	-ti-	2.d\	.	.	.
.	.	.	.	.	.	.	.	2g/	-ti-
.	.	.	.	.	.	4e\	.	.	.
=29	=29	=29	=29	=29	=29	=29	=29	=29	=29
0.r	.	2AA/	le-	1A	-a,	2f\	Vir-	1a	-a,
.	.	2.C/	-ti-	.	.	1e	.	.	.
.	.	.	.	1G	.	.	.	1r	.
.	.	4D\	.	.	.	.	.	.	.
.	.	2.E\	.	.	.	2c\	.	.	.
.	.	.	.	2r	.	2B\	.	1r	.
.	.	4F\	.	.	.	.	.	.	.
.	.	[2G\	.	4C/	Vir-	2E/	.	.	.
.	.	.	.	4D/	.	.	.	.	.
=30	=30	=30	=30	=30	=30	=30	=30	=30	=30
0.r	.	4G\]	.	4E/	-gi-	2B\	-gi-	0.r	.
.	.	4F\	-ti-	4F/	.	.	.	.	.
.	.	1E	-a	1G	-num	2c\	-num	.	.
.	.	.	.	.	.	2B\	gem-	.	.
.	.	2C/	Vir-	1E	gem-	1A	.	.	.
.	.	1BB	-gi-	.	.	.	.	.	.
.	.	.	.	2D/	.	2G#i/	-ma,	.	.
=31	=31	=31	=31	=31	=31	=31	=31	=31	=31
0.r	.	1AA	-num	1E	-ma,	1A	.	1e	Vir-
.	.	1r	.	1r	.	2r	Vir-	2f/	-gi-
.	.	.	.	.	.	2.c\	-gi-	2e/	-num
.	.	1r	.	1r	.	.	.	2.g/	gem-
.	.	.	.	.	.	4B\	-num	.	.
.	.	.	.	.	.	2c\	gem-	.	.
.	.	.	.	.	.	.	.	8f/L	.
.	.	.	.	.	.	.	.	8e/J	.
=32	=32	=32	=32	=32	=32	=32	=32	=32	=32
0.r	.	2r	.	1r	.	2d\	-ma,	2f/	.
.	.	2AA/	gem-	.	.	2e\	.	2e/	-ma,
.	.	2.C/	.	2G/	ti-	1r	.	1r	.
.	.	.	.	2A/	-bi	.	.	.	.
.	.	4BB/	.	.	.	.	.	.	.
.	.	2C/	.	2A/	Do-	1r	ti-	1r	.
.	.	2D\	.	2F/	-mi-	.	.	.	.
=33	=33	=33	=33	=33	=33	=33	=33	=33	=33
0.r	.	1E	-ma,	1E	-na,	2B\	.	2r	.
.	.	.	.	.	.	1c	-bi	2g/	ti-
.	.	1r	.	1r	.	.	.	2.a/	.
.	.	.	.	.	.	2d\	Do-	.	.
.	.	.	.	.	.	.	.	8g/L	.
.	.	.	.	.	.	.	.	8a/J	.
.	.	1r	.	1r	.	2B\	.	2g/	-bi
.	.	.	.	.	.	[2e\	.	2e/	Do-
=34	=34	=34	=34	=34	=34	=34	=34	=34	=34
0.r	.	1r	.	1r	.	2e\]	-mi-	1f	-mi-
.	.	.	.	.	.	2d\	-na,	.	.
.	.	2r	.	2A/	glo-	1e	.	1e	-na,
.	.	2E\	ti-	2.c\	.	.	.	.	.
.	.	2F\	.	.	.	1r	.	1r	.
.	.	.	.	4d\	.	.	.	.	.
.	.	2G\	-bi	2B\	-ri-	.	.	.	.
=35	=35	=35	=35	=35	=35	=35	=35	=35	=35
0.r	.	2E\	Do-	2c\	-o-	1r	.	1r	.
.	.	1A	.	2A/	.	.	.	.	.
.	.	.	.	1B	.	1r	glo-	1r	.
.	.	2G#i\	-mi-	.	.	.	.	.	.
.	.	1A	-na,	1A	-sa,	1c	-ri-	2r	.
.	.	.	.	.	.	.	.	[2e/	glo-
=36	=36	=36	=36	=36	=36	=36	=36	=36	=36
0.r	.	1r	.	1r	.	2A/	-o-	2e/]	.
.	.	.	.	.	.	1e	.	2A/	-ri-
.	.	1r	.	1r	.	.	.	2e/	-o-
.	.	.	.	.	.	1d	-sa,	2f/	.
.	.	2r	.	1A	co-	.	.	1e	-sa,
.	.	2AA/	glo-	.	.	2c\	.	.	.
=37	=37	=37	=37	=37	=37	=37	=37	=37	=37
0.r	.	2BB/	.	2D/	.	1r	.	0.r	.
.	.	2AA/	-ri-	2A/	-men-	.	.	.	.
.	.	2.D\	-o-	2B-i\	-da-	1r	.	.	.
.	.	.	.	2A/	-mus	.	.	.	.
.	.	4C/	.	.	.	.	.	.	.
.	.	1AA	-sa,	2.c\	ho-	2r	co-	.	.
.	.	.	.	.	.	2A/	.	.	.
.	.	.	.	8B-i/L	.	.	.	.	.
.	.	.	.	8A/J	.	.	.	.	.
=38	=38	=38	=38	=38	=38	=38	=38	=38	=38
0.r	.	0.r	.	2G/	.	2B\	-men-	0.r	.
.	.	.	.	2A/	.	2A/	-da-	.	.
.	.	.	.	2F/	.	2.d\	.	.	.
.	.	.	.	1G	.	.	.	.	.
.	.	.	.	.	.	4G/	.	.	.
.	.	.	.	.	.	2d\	.	.	.
.	.	.	.	2C/	-di-	2e\	.	.	.
=39	=39	=39	=39	=39	=39	=39	=39	=39	=39
0.r	.	2r	.	1G	-e,	2d\	-mus	0.r	.
.	.	2GG/	co-	.	.	2G/	ho-	.	.
.	.	2D\	.	2F/	et	2A/	.	.	.
.	.	2E\	.	2G/	.	1G	-di-	.	.
.	.	1D	-men-	1A	o-	.	.	.	.
.	.	.	.	.	.	2F#i/	-e,	.	.
=40	=40	=40	=40	=40	=40	=40	=40	=40	=40
0.r	.	2.GG/	-da-	2.G/	.	2G/	co-	2.B/	co-
.	.	.	.	.	.	2.d\	.	.	.
.	.	4AA/	.	4D/	.	.	.	4c/	.
.	.	2BB/	.	2G/	.	.	.	2d/	.
.	.	.	.	.	.	4G/	.	.	.
.	.	2AA/	.	1A	.	2c\	.	2e/	.
.	.	2D\	.	.	.	2d\	-men-	2d/	.
.	.	2E\	-mus	2G/	-mni	2c\	-da-	2g/	-men-
=41	=41	=41	=41	=41	=41	=41	=41	=41	=41
0.r	.	2.D\	ho-	2A/	tem-	2.d\	.	2.f/	-da-
.	.	.	.	2B-i\	.	.	.	.	.
.	.	4E\	.	.	.	4G/	-mus	4g/	.
.	.	2F\	.	2F/	.	2d\	ho-	2a/	-mus
.	.	2E\	-di-	2C/	-po-	2e\	-di-	1g	ho-
.	.	1A	-e,	1D	-re,	1d	-e,	.	.
.	.	.	.	.	.	.	.	2f#i/	-di-
=42	=42	=42	=42	=42	=42	=42	=42	=42	=42
0.r	.	0.r	.	0.r	.	2G/	et	2g/	-e,
.	.	.	.	.	.	2A/	o-	4e/	et
.	.	.	.	.	.	.	.	2f/	o-
.	.	.	.	.	.	2B\	.	.	.
.	.	.	.	.	.	.	.	4d/	.
.	.	.	.	.	.	1c	-mni	2.e/	.
.	.	.	.	.	.	.	.	4A/	.
.	.	.	.	.	.	2c\	tem-	2e/	-mni
=43	=43	=43	=43	=43	=43	=43	=43	=43	=43
0.r	.	0.r	.	0.r	.	2d\	.	2f/	tem-
.	.	.	.	.	.	1c	.	2.e/	.
.	.	.	.	.	.	.	.	4d/	.
.	.	.	.	.	.	1A	.	2c/	.
.	.	.	.	.	.	.	.	2B/	.
.	.	.	.	.	.	2G/	.	[2e/	.
=44	=44	=44	=44	=44	=44	=44	=44	=44	=44
0.r	.	1r	.	1r	.	4A/	.	4e/]	.
.	.	.	.	.	.	4F/	.	4d/	.
.	.	.	.	.	.	2E/	.	2g/	.
.	.	1r	.	1r	.	4A/	.	4f/	.
.	.	.	.	.	.	4G/	.	4e/	.
.	.	.	.	.	.	2A/	-po-	1e	.
.	.	1D	et	1A	tem-	1F	-re,	.	.
.	.	.	.	.	.	.	.	2d/	-po-
=45	=45	=45	=45	=45	=45	=45	=45	=45	=45
0EE	cor-	2BB/	o-	2B\	.	2E/	cor-	1e	-re,
.	.	2GG/	-mni	2E/	-po-	2B\	.	.	.
.	.	2C/	tem-	1E	-re,	2c\	.	1g	cor-
.	.	2GG/	.	.	.	2B\	.	.	.
2FF/	-po-	2C/	.	2r	.	2A/	.	2a/	.
2GG/	-ra	2BB/	-po-	2D/	cor-	[2B\	.	2d/	.
=46	=46	=46	=46	=46	=46	=46	=46	=46	=46
2EE/	no-	2GG/	-re,	2E/	.	2B\]	-po-	1g	.
2GG/	-stra,	2BB/	cor-	2D/	-po-	2G/	-ra	.	.
2r	.	2AA/	.	2C/	-ra	2A/	no-	2.e/	.
1EE	et	2C/	.	1E	no-	1G	-tra	.	.
.	.	.	.	.	.	.	.	4f/	.
.	.	2BB/	.	.	.	.	.	2g/	-po-
2FF/	.	2AA/	.	2C/	-stra,	2c\	et	2a/	-ra
=47	=47	=47	=47	=47	=47	=47	=47	=47	=47
2GG/	a-	2BB/	.	2r	.	2B\	a-	2g/	no-
2AA/	-ni-	2C/	-po-	1E	et	2A/	-ni-	2e/	-stra,
2EE/	-mas	2BB/	-ra	.	.	2B\	-mas	2r	.
2AA/	.	1AA	no-	2E/	a-	2E/	.	2.c/	et
2r	.	.	.	2A/	.	2r	nos-	.	.
.	.	.	.	.	.	.	.	4d/	.
[2EE/	nos-	2C/	.	2G/	-ni-	2G/	.	4e/	.
.	.	.	.	.	.	.	.	4f/	.
=48	=48	=48	=48	=48	=48	=48	=48	=48	=48
2EE/]	.	2BB/	-stra,	2E/	-mas	2B\	.	2g/	a-
2FF/	.	2r	.	2r	.	2A/	.	2a/	-ni-
2GG/	.	1r	.	2B\	nos-	2d\	.	2g/	-mas
2AA/	.	.	.	2A/	.	2c\	.	4f/	nos-
.	.	.	.	.	.	.	.	4e/	.
1BB	.	2GG/	et	2G/	.	1B	-tras,	1d	-tras,
.	.	2D\	.	2F#/	.	.	.	.	.
=49	=49	=49	=49	=49	=49	=49	=49	=49	=49
1EE	-tras,	2E\	a-	1B	-tras,	1e	.	2r	.
.	.	2BB/	.	.	.	.	.	2g/	nunc
2r	.	2.F\	.	1A	.	1c	.	2.a/	.
1AA	nunc	.	.	.	.	.	.	.	.
.	.	4E\	.	.	.	.	.	4g/	.
.	.	2C/	.	2r	.	1r	nunc	4f/	.
.	.	.	.	.	.	.	.	4e/	.
2GG/	et	2BB/	-ni-	2E/	nunc	.	.	2g/	et
=50	=50	=50	=50	=50	=50	=50	=50	=50	=50
2FF/	in	2.C/	-mas	2F/	.	0A	et	2a/	in,
1AA	ho-	.	.	2C/	.	.	.	2e/	.
.	.	4D\	.	.	.	.	.	.	.
.	.	2E\	.	2r	.	.	.	2r	.
2FF/	-ra,	1AA	nos-	2C/	et	.	.	2.a/	ho-
2r	.	.	.	2.C/	in	1A	in	.	.
.	.	.	.	.	.	.	.	4g/	.
[2AA/	nunc	[2C/	.	.	.	.	.	4e/	.
.	.	.	.	4D/	.	.	.	4f/	.
=51	=51	=51	=51	=51	=51	=51	=51	=51	=51
2AA/]	.	2C/]	.	4E/	.	2A/	.	2e/	-ra,
.	.	.	.	4F/	.	.	.	.	.
2GG/	et	2BB/	.	2G/	.	2B\	ho-	2r	.
2FF/	in	1AA	-tras,	2.C/	ho-	1c	-ra,	2f/	ho-
1AA	ho-	.	.	.	.	.	.	2e/	.
.	.	.	.	4D/	.	.	.	.	.
.	.	2r	.	2E/	.	1A	.	2c/	-ra,
2FF/	-ra,	[2C/	nunc	2F/	.	.	.	2r	.
=52	=52	=52	=52	=52	=52	=52	=52	=52	=52
2r	.	4C/]	.	2E/	-ra,	1.A	ho-	2.c/	mor-
.	.	4D\	.	.	.	.	.	.	.
1AA	mor-	2E\	et	2C/	.	.	.	.	.
.	.	.	.	.	.	.	.	4d/	.
.	.	2C/	in	2r	.	.	.	4e/	.
.	.	.	.	.	.	.	.	4f/	.
2GG/	.	2D\	ho-	2BB/	mor-	2B\	-ra,	2g/	.
2FF/	.	2AA/	-ra,	4C/	.	2A/	.	2a/	.
.	.	.	.	4D/	.	.	.	.	.
2EE/	.	2r	.	2E/	.	2r	mor-	2g/	.
=53	=53	=53	=53	=53	=53	=53	=53	=53	=53
1AA	.	0E	mor-	2C/	.	2.c\	.	2e/	.
.	.	.	.	2c\	.	.	.	1a	.
.	.	.	.	.	.	4d\	-tis	.	.
1EE	-tis,	.	.	1B	-tis,	1e	nos-	.	.
.	.	.	.	.	.	.	.	2g/	.
2r	.	2AA/	.	2A/	nos-	2c\	.	2a/	-tis,
[2BB/	nos-	2BB/	.	2G/	.	2d\	.	2d/	.
=54	=54	=54	=54	=54	=54	=54	=54	=54	=54
2BB/]	.	2D\	-tis,	2F#/	.	1.B	.	2r	.
2EE/	.	2BB/	.	2G/	.	.	.	2e/	nos-
2BB/	.	1r	.	2F#i/	-tre.	.	.	2d/	.
2C/	.	.	.	2E/	.	2A/	-trae,	1e	.
1BB	-trae,	1r	.	2r	.	1B	nos-	.	.
.	.	.	.	2G/	nos-	.	.	2d/	.
=55	=55	=55	=55	=55	=55	=55	=55	=55	=55
0.r	.	1.AA	nos-	2.c\	.	1A	.	2.a/	.
.	.	.	.	4B\	.	.	.	4g/	.
.	.	.	.	2A/	.	1c	.	4f/	.
.	.	.	.	.	.	.	.	4e/	.
.	.	2C/	.	2G/	.	.	.	1e	.
.	.	1D	.	1F	.	1A	-tre.	.	.
.	.	.	.	.	.	.	.	2d/	.
=56	=56	=56	=56	=56	=56	=56	=56	=56	=56
0EE/l	tre.	0BB/l	-tre.	0E/l	-tre.	0B\l	.	0e/l	-tre.
!!LO:LB:i:g=z
=57||	=57||	=57||	=57||	=57||	=57||	=57||	=57||	=57||	=57||
*>B	*>B	*>B	*>B	*>B	*>B	*>B	*>B	*>B	*>B
*clefF4	*	*clefF4	*	*clefGv2	*	*clefGv2	*	*clefG2	*
*k[]	*	*k[]	*	*k[]	*	*k[]	*	*k[]	*
*M2/1	*	*M2/1	*	*M2/1	*	*M2/1	*	*M2/1	*
*met(C|)	*	*met(C|)	*	*met(C|)	*	*met(C|)	*	*met(C|)	*
!!section: Tu felix et sacre permanes
!!!OMD: Tu felix et sacre permanes
[0AA	Tu	[0E	Tu	0A	Tu	0E	Tu	1.c	Tu
.	.	.	.	.	.	.	.	2c/	fe-
=58	=58	=58	=58	=58	=58	=58	=58	=58	=58
0AA_	.	1E]	.	1.E	fe-	0A	et	0c	-lix
.	.	1AA	.	.	.	.	.	.	.
.	.	.	.	2F/	-lix	.	.	.	.
=59	=59	=59	=59	=59	=59	=59	=59	=59	=59
0AA_	.	1E	fe-	2E/	et	1.A	sac-	1.c	et
.	.	.	.	2C/	sac-	.	.	.	.
.	.	1F	.	1C	-re	.	.	.	.
.	.	.	.	.	.	2B\	-re	2d/	sac-
=60	=60	=60	=60	=60	=60	=60	=60	=60	=60
0AA_	.	0E	-lix	[0A	per-	0c	per-	1e	-re
.	.	.	.	.	.	.	.	1A	per-
=61	=61	=61	=61	=61	=61	=61	=61	=61	=61
0AA_	.	0r	.	1A]	.	1c	-ma-	1e	-ma-
.	.	.	.	1F	-ma-	1d	-nes,	1f	.
=62	=62	=62	=62	=62	=62	=62	=62	=62	=62
0AA]	.	0r	.	0A	-nes,	0c#	.	0e	-nes,
=63	=63	=63	=63	=63	=63	=63	=63	=63	=63
1r	.	1r	.	1r	.	1r	cum	1r	.
[1AA	Fi-	1AA	per-	[1E	cum	[1c	.	[1a	cum
=64	=64	=64	=64	=64	=64	=64	=64	=64	=64
1AA]	.	1C	-ma-	1E]	.	1c]	di-	2a/]	.
.	.	.	.	.	.	.	.	2g/	di-
1DD	-li-	1D	-nes,	1D	di-	[1A	.	2f/	-le-
.	.	.	.	.	.	.	.	2f/	-cto
=65	=65	=65	=65	=65	=65	=65	=65	=65	=65
1AA	-o	1r	.	1C	-le-	2A/]	-le-	2e/	Fi-
.	.	.	.	.	.	2G/	-cto	2e/	-li-
1BB-	.	1GG	cum	1D	-cto	1G	Fi-	[1d	-o
=66	=66	=66	=66	=66	=66	=66	=66	=66	=66
0AA	tu-	1C	di-	0E	Fi-	0A	-li-	1d]	.
.	.	1AA	-le-	.	.	.	.	1c#i	tu-
=67	=67	=67	=67	=67	=67	=67	=67	=67	=67
0DD	-o,	0AA	-cto	1D	-li-	1.F#	.	0d	-o,
.	.	.	.	1D	-o	.	.	.	.
.	.	.	.	.	.	2G/	-o	.	.
=68	=68	=68	=68	=68	=68	=68	=68	=68	=68
1FF	Do-	1AA	Fi-	2r	.	1A	.	0r	.
.	.	.	.	1A	tu-	.	.	.	.
1GG	.	2BB/	.	.	.	1d	.	.	.
.	.	[2D\	.	[2G/	.	.	.	.	.
=69	=69	=69	=69	=69	=69	=69	=69	=69	=69
1AA	-mi-	2D\]	.	2G/]	.	1r	tu-	0r	.
.	.	2C/	-li-	2F#i/	.	.	.	.	.
1GG	.	2D\	-o	1G	-o,	1B	.	.	.
.	.	[2G\	tu-	.	.	.	.	.	.
=70	=70	=70	=70	=70	=70	=70	=70	=70	=70
1C	-no,	2G\]	.	0r	.	2.c\	.	0r	.
.	.	4F\	.	.	.	.	.	.	.
.	.	4E\	.	.	.	4B\	-o,	.	.
1D	.	1F	.	.	.	1A	.	.	.
=71	=71	=71	=71	=71	=71	=71	=71	=71	=71
0E	.	[0E	-o,	1B	Do-	1r	Do-	[0g	Do-
.	.	.	.	1c	-mi-	[1e	.	.	.
=72	=72	=72	=72	=72	=72	=72	=72	=72	=72
0EE	no-	0E]	.	1B	.	1e]	-mi-	1g]	.
.	.	.	.	1G	-no-	1B	.	1g	-mi-
=73	=73	=73	=73	=73	=73	=73	=73	=73	=73
1EE	-stro	1BB	Do-	1r	.	0B	.	0g	.
1EE	Je-	1E	.	1B	-Do-	.	.	.	.
=74	=74	=74	=74	=74	=74	=74	=74	=74	=74
0AA	-su	1C	.	1A	.	1r	-no-	0a	-no-
.	.	1AA	-mi-	1c	-mi-	[1e	.	.	.
=75	=75	=75	=75	=75	=75	=75	=75	=75	=75
0EE	Chri-	0E	.	0B	.	1e]	-stro	1.g	-stro
.	.	.	.	.	.	1e	Je-	.	.
.	.	.	.	.	.	.	.	2a/	.
=76	=76	=76	=76	=76	=76	=76	=76	=76	=76
0EE	-sto,	1BB	-Je-	[0G	-no-	0e	-su	1b	Je-
.	.	1E	-su	.	.	.	.	1e	-su
=77	=77	=77	=77	=77	=77	=77	=77	=77	=77
0r	.	1G	Chri-	1G]	.	0d	Chri-	1b	Chri-
.	.	1F	.	1A	-stro	.	.	[1a	.
=78	=78	=78	=78	=78	=78	=78	=78	=78	=78
0EE	quem	0E	-sto,	0B	Je-	0e	-sto,	2a/]	.
.	.	.	.	.	.	.	.	4g#i/	.
.	.	.	.	.	.	.	.	4f#i/	.
.	.	.	.	.	.	.	.	1g#i	.
=79	=79	=79	=79	=79	=79	=79	=79	=79	=79
2.AA/	pro	2.E\	quem	[0A	-su	1c	.	1a	-sto,
4BB/	.	4F\	.	.	.	.	.	.	.
2C/	.	2E\	.	.	.	2r	quem	1r	.
[2D\	no-	2D\	.	.	.	2A/	.	.	.
=80	=80	=80	=80	=80	=80	=80	=80	=80	=80
2D\]	.	1F	pro	0A]	.	1d	.	0r	.
4C/	.	.	.	.	.	.	.	.	.
4BB/	.	.	.	.	.	.	.	.	.
2C/	.	2E\	no-	.	.	2r	pro	.	.
2D\	.	[2D\	.	.	.	2A/	.	.	.
=81	=81	=81	=81	=81	=81	=81	=81	=81	=81
1GG	-bis,	2D\]	.	1G	Chri-	2.B\	no-	2.d/	quem
.	.	2G\	.	.	.	.	.	.	.
.	.	.	.	.	.	4c\	.	4e/	.
1r	.	2F\	.	2A/	.	2d\	.	2f/	.
.	.	2E\	.	2G/	.	2c\	-bis,	[2g/	pro
=82	=82	=82	=82	=82	=82	=82	=82	=82	=82
0r	.	2.D\	.	1A	-sto,	0d	no-	2g/]	.
.	.	.	.	.	.	.	.	4f/	.
.	.	4C/	.	.	.	.	.	4e/	.
.	.	1D	.	1A	quem	.	.	4f/	no-
.	.	.	.	.	.	.	.	4e/	.
.	.	.	.	.	.	.	.	4d/	.
.	.	.	.	.	.	.	.	4c/	.
=83	=83	=83	=83	=83	=83	=83	=83	=83	=83
2.GG/	ex-	1D	-bis,	2G/	pro	1.d	.	1B	-bis,
.	.	.	.	4F/	.	.	.	.	.
4AA/	.	.	.	4E/	.	.	.	.	.
2BB/	-o-	1G	ex-	2D/	no-	.	.	1r	.
[2C/	-ra-	.	.	2C/	-bis,	2G/	.	.	.
=84	=84	=84	=84	=84	=84	=84	=84	=84	=84
2C/]	.	2E\	.	2r	.	1c	-bis	0r	.
4BB/	.	2F\	.	2F/	ex-	.	.	.	.
4AA/	.	.	.	.	.	.	.	.	.
2BB/	.	2D\	-o-	1G	-o-	2d\	.	.	.
2C/	.	2E\	.	.	.	2c\	ex-	.	.
=85	=85	=85	=85	=85	=85	=85	=85	=85	=85
1FF	-re,	1F	-ra-	2A/	-ra-	2.A/	.	2.c/	ex-
.	.	.	.	4G/	.	.	.	.	.
.	.	.	.	4F/	.	4B\	-o-	4d/	.
1r	.	2G\	.	2E/	.	2c\	-ra-	2e/	-o-
.	.	2A\	.	2D/	-re,	[2d\	.	[2f/	-ra-
=86	=86	=86	=86	=86	=86	=86	=86	=86	=86
0r	.	1D	-re,	0r	.	2d\]	.	2f/]	.
.	.	.	.	.	.	4c\	.	4e/	.
.	.	.	.	.	.	4B\	.	4d/	.
.	.	1r	.	.	.	2c\	.	2e/	.
.	.	.	.	.	.	2d\	-re,	2f/	.
=87	=87	=87	=87	=87	=87	=87	=87	=87	=87
2.EE/	di-	2r	.	4E/	di-	1e	.	1g	-re,
.	.	.	.	4F/	.	.	.	.	.
.	.	2E\	di-	4G/	.	.	.	.	.
4FF/	.	.	.	4A/	.	.	.	.	.
2GG/	.	2D\	.	2B\	.	1r	.	1r	.
[2AA/	-gne-	2C/	.	[2c\	-gne-	.	.	.	.
=88	=88	=88	=88	=88	=88	=88	=88	=88	=88
2AA/]	.	1E	-gne-	2c\]	.	0r	di-	0r	.
4GG/	.	.	.	4B\	.	.	.	.	.
4FF/	.	.	.	4A/	.	.	.	.	.
2GG/	.	2D\	.	2B\	.	.	.	.	.
2AA/	.	2C/	.	2c\	.	.	.	.	.
=89	=89	=89	=89	=89	=89	=89	=89	=89	=89
1EE	-ris,	1E	-ris,	1B	-ris,	4E/	.	1.g	di-
.	.	.	.	.	.	4F/	.	.	.
.	.	.	.	.	.	4G/	.	.	.
.	.	.	.	.	.	4A/	.	.	.
1r	.	1r	.	1r	.	2B\	-gne-	.	.
.	.	.	.	.	.	[2c\	.	[2a/	-gne-
=90	=90	=90	=90	=90	=90	=90	=90	=90	=90
0r	.	0r	.	0r	.	2c\]	.	2a/]	.
.	.	.	.	.	.	4B\	.	4g/	.
.	.	.	.	.	.	4A/	.	4f/	.
.	.	.	.	.	.	2B\	.	2g/	.
.	.	.	.	.	.	2c\	-ris,	2a/	.
=91	=91	=91	=91	=91	=91	=91	=91	=91	=91
0r	.	2E\	ut	2r	.	1B	.	1g	-ris,
.	.	4D\	.	1G	ut	.	.	.	.
.	.	4C/	.	.	.	.	.	.	.
.	.	2BB/	.	.	.	1r	.	1r	.
.	.	[2C/	.	[2A/	.	.	.	.	.
=92	=92	=92	=92	=92	=92	=92	=92	=92	=92
1EE	ut	2C/]	.	2A/]	.	0r	.	0r	.
.	.	4BB/	in	4G/	in	.	.	.	.
.	.	4AA/	.	4F/	.	.	.	.	.
1EE	in	1BB	fi-	1G	fi-	.	.	.	.
=93	=93	=93	=93	=93	=93	=93	=93	=93	=93
2.FF/	fi-	1AA	-ne,	1A	-ne,	2r	in	2a/	ut
.	.	.	.	.	.	1c	fi-	4g/	.
4GG/	.	.	.	.	.	.	.	4f/	.
2AA/	.	1r	.	1r	.	.	.	2e/	in
2DD/	-ne	.	.	.	.	[2d\	.	[2f/	fi-
=94	=94	=94	=94	=94	=94	=94	=94	=94	=94
1AA	se-	0r	.	0r	.	2d\]	.	2f/]	.
.	.	.	.	.	.	4c\	.	4e/	.
.	.	.	.	.	.	4B\	-ne,	4d/	.
1AA	-cu-	.	.	.	.	1c	.	1e	-ne,
=95	=95	=95	=95	=95	=95	=95	=95	=95	=95
[0FF	-lo-	1.C	se-	1.F	se-	2r	se-	0a	se-
.	.	.	.	.	.	2c\	.	.	.
.	.	.	.	.	.	1A	-cu-	.	.
.	.	2AA/	-cu-	4E/	-cu-	.	.	.	.
.	.	.	.	4D/	.	.	.	.	.
=96	=96	=96	=96	=96	=96	=96	=96	=96	=96
1FF]	.	1AA	-lo-	2C/	-lo-	1c	-lo-	1a	-cu-
.	.	.	.	1F	.	.	.	.	.
1DD	-rum,	1D	.	.	.	2d\	.	[1f	-lo-
.	.	.	.	4E/	.	[2A/	.	.	.
.	.	.	.	4D/	.	.	.	.	.
=97	=97	=97	=97	=97	=97	=97	=97	=97	=97
1FF	a	2C/	-rum,	1A	-rum,	2A/]	-rum	2f/]	.
.	.	2D\	se-	.	.	2A/	a	2d/	.
2GG/	pec-	2BB/	-cu-	1r	.	2B\	pec-	2d/	-rum,
2EE/	.	[2C/	-lo-	.	.	2G/	-ca-	2g/	.
=98	=98	=98	=98	=98	=98	=98	=98	=98	=98
1FF	-ca-	2C/]	.	4AA/	a	2A/	-tis	1c	.
.	.	.	.	4BB/	.	.	.	.	.
.	.	2AA/	.	4C/	.	1A	li-	.	.
.	.	.	.	4D/	.	.	.	.	.
1EE	-tis,	1BB	.	1E	.	.	.	1r	.
.	.	.	.	.	.	2G/	.	.	.
=99	=99	=99	=99	=99	=99	=99	=99	=99	=99
1r	.	1AA	-rum,	1C	pec-	2A/	.	1e	a
.	.	.	.	.	.	2c\	-be-	.	.
1GG	li-	1r	.	1G	-ca-	1B	-ri,	2d/	pec-
.	.	.	.	.	.	.	.	2e/	-ca-
=100	=100	=100	=100	=100	=100	=100	=100	=100	=100
2AA/	.	2C/	a	2E/	.	1A	.	1c	-tis,
2FF/	.	2C/	pec-	1F	.	.	.	.	.
1GG	-be-	1BB	-ca-	.	.	1r	scan-	2r	.
.	.	.	.	[2E/	.	.	.	2g/	li-
=101	=101	=101	=101	=101	=101	=101	=101	=101	=101
1FF	-ri,	1AA	-tis,	2E/]	.	2c\	.	2a/	.
.	.	.	.	2D/	.	2d\	.	2f/	.
1r	.	1r	.	1C	-tis,	1e	.	1g	-be-
=102	=102	=102	=102	=102	=102	=102	=102	=102	=102
1FF	scan-	1AA	li-	0r	.	2c\	-de-	1f	-ri,
.	.	.	.	.	.	2A/	-re	.	.
2GG/	.	2D\	-be-	.	.	1B	va-	2r	.
2EE/	.	[2E\	-ri,	.	.	.	.	2g/	scan-
=103	=103	=103	=103	=103	=103	=103	=103	=103	=103
1FF	-de-	2E\]	.	2r	.	1A	-le-	2a/	.
.	.	1D	scan-	2.A/	li-	.	.	2f/	-de-
1EE	-re	.	.	.	.	1e	-a-	1g	-re
.	.	.	.	4G/	-be-	.	.	.	.
.	.	2C/	.	2G/	-ri,	.	.	.	.
=104	=104	=104	=104	=104	=104	=104	=104	=104	=104
2r	.	2D\	.	2r	.	1.d	.	2f/	va-
2GG/	va-	2BB/	.	2G/	scan-	.	.	2d/	.
2FF/	-le-	2AA/	.	2A/	.	.	.	2r	.
2GG/	-a-	[2BB/	.	2D/	-de-	2B\	-mus,	2d/	-le-
=105	=105	=105	=105	=105	=105	=105	=105	=105	=105
1EE	-mus,	2BB/]	.	1E	-re	1B	.	1g	-a-
.	.	2BB/	-de-	.	.	.	.	.	.
2r	.	2C/	.	1C	va-	1r	.	1e	-mus,
2AA/	ad	2E\	.	.	.	.	.	.	.
=106	=106	=106	=106	=106	=106	=106	=106	=106	=106
2BB/	re-	1D	-re	2D/	.	0r	.	0r	.
1D	-gi-	.	.	2F/	.	.	.	.	.
.	.	1AA	.	1E	-le-	.	.	.	.
2C/	.	.	.	.	.	.	.	.	.
=107	=107	=107	=107	=107	=107	=107	=107	=107	=107
2D\	.	1r	.	2D/	-a-	0r	.	0r	.
4C/	.	.	.	2.A/	.	.	.	.	.
4BB/	.	.	.	.	.	.	.	.	.
2AA/	-na	2.C/	va-	.	.	.	.	.	.
.	.	.	.	4G/	.	.	.	.	.
[2C/	ce-	.	.	4E/	.	.	.	.	.
.	.	4D\	.	4F/	.	.	.	.	.
=108	=108	=108	=108	=108	=108	=108	=108	=108	=108
4C/]	.	2E\	.	2G/	.	0r	.	0r	.
4BB/	.	.	.	.	.	.	.	.	.
2AA/	.	4D\	-le-	2C/	.	.	.	.	.
.	.	4C/	.	.	.	.	.	.	.
2GG/	-lo-	2BB/	-a-	2G/	.	.	.	.	.
2AA/	.	[2C/	.	[2F/	.	.	.	.	.
=109	=109	=109	=109	=109	=109	=109	=109	=109	=109
2EE/	.	2C/]	.	2F/]	.	0r	ad	0r	.
2GG/	.	1BB	.	1E	.	.	.	.	.
1FF	.	.	.	.	.	.	.	.	.
.	.	2AA/	.	2D/	.	.	.	.	.
=110	=110	=110	=110	=110	=110	=110	=110	=110	=110
1EE	-rum,	1BB	-mus,	1E	-mus,	2.E/	.	2.g/	ad
.	.	.	.	.	.	4F/	.	4a/	.
1r	.	1r	.	1r	.	2G/	re-	2b\	.
.	.	.	.	.	.	2A/	.	[2e/	re-
=111	=111	=111	=111	=111	=111	=111	=111	=111	=111
0r	.	0r	.	0r	.	2G/	-gi-	4e/]	.
.	.	.	.	.	.	.	.	4f/	.
.	.	.	.	.	.	2c\	.	4g/	.
.	.	.	.	.	.	.	.	4a/	.
.	.	.	.	.	.	2d\	.	2f/	-gi-
.	.	.	.	.	.	[2e\	.	2e/	.
=112	=112	=112	=112	=112	=112	=112	=112	=112	=112
0r	.	0r	.	1r	.	2e\]	-na	2g/	.
.	.	.	.	.	.	4d\	.	4f/	-na
.	.	.	.	.	.	4c\	ce-	4e/	.
.	.	.	.	2r	.	2B\	-lo-	2d/	ce-
.	.	.	.	[2C/	ce-	[2c\	.	[2e/	-lo-
=113	=113	=113	=113	=113	=113	=113	=113	=113	=113
0r	.	0r	.	2C/]	.	4c\]	.	4e/]	.
.	.	.	.	.	.	4B\	.	4d/	.
.	.	.	.	2E/	.	2G/	.	1g	.
.	.	.	.	1D	-lo-	1A	-rum,	.	.
.	.	.	.	.	.	.	.	2f#i/	.
=114	=114	=114	=114	=114	=114	=114	=114	=114	=114
1.GG	et	1D	re-	0d	-rum,	2G/	ce-	1g	-rum,
.	.	.	.	.	.	2A/	-lo-	.	.
.	.	2G\	-gi-	.	.	2B\	.	1r	.
2AA/	.	4F\	-na	.	.	2c\	.	.	.
.	.	4E\	.	.	.	.	.	.	.
=115	=115	=115	=115	=115	=115	=115	=115	=115	=115
1BB	be-	2D\	ce-	1r	.	1d	-rum,	0r	.
.	.	1G	-lo-	.	.	.	.	.	.
1EE	-ne-	.	.	[1G	et	1e	.	.	.
.	.	2G\	-rum,	.	.	.	.	.	.
=116	=116	=116	=116	=116	=116	=116	=116	=116	=116
1BB	-di-	1D	et	1G]	.	0r	.	0r	.
1C	.	[1E	be-	[1A	be-	.	.	.	.
=117	=117	=117	=117	=117	=117	=117	=117	=117	=117
0BB	-cta,	2E\]	.	2A/]	.	1r	et	0r	.
.	.	4D\	-ne-	4G/	-ne-	.	.	.	.
.	.	4C/	.	4F/	.	.	.	.	.
.	.	1D	-di-	[1G	-di-	1B	.	.	.
=118	=118	=118	=118	=118	=118	=118	=118	=118	=118
1r	.	1C	.	1G]	.	2c\	be-	1.g	et
.	.	.	.	.	.	4B\	.	.	.
.	.	.	.	.	.	4A/	-ne-	.	.
1C	sit	1E	-cta,	1G	-cta,	2G/	-di-	.	.
.	.	.	.	.	.	[2c\	.	4f/	be-
.	.	.	.	.	.	.	.	4e/	-ne-
=119	=119	=119	=119	=119	=119	=119	=119	=119	=119
1D	be-	1r	.	1r	.	2c\]	.	2a/	-di-
.	.	.	.	.	.	2B\	-cta	4g/	.
.	.	.	.	.	.	.	.	4f/	.
2C/	-a-	2.AA/	sit	1A	sit	[1c	.	1e	-cta,
[2AA/	.	.	.	.	.	.	.	.	.
.	.	4BB/	.	.	.	.	.	.	.
=120	=120	=120	=120	=120	=120	=120	=120	=120	=120
2AA/]	.	2C/	.	1A	be-	2c\]	.	1r	.
4GG/	.	2AA/	be-	.	.	2d\	sit	.	.
4FF/	.	.	.	.	.	.	.	.	.
1EE	-ta,	1BB	-a-	2G/	-a-	2e\	be-	[1g	sit
.	.	.	.	2E/	.	4d\	.	.	.
.	.	.	.	.	.	4c\	-a-	.	.
=121	=121	=121	=121	=121	=121	=121	=121	=121	=121
1r	.	1GG	-ta,	1D	-ta,	1B	.	2g/]	.
.	.	.	.	.	.	.	.	4f/	be-
.	.	.	.	.	.	.	.	4e/	.
1DD	An-	2r	.	[1A	An-	1d	-ta,	2a/	-a-
.	.	2AA/	An-	.	.	.	.	4g/	.
.	.	.	.	.	.	.	.	4f/	.
=122	=122	=122	=122	=122	=122	=122	=122	=122	=122
1AA	-na,	1C	.	1A]	.	1c	.	1e	-ta,
1BB-i	.	1D	.	1G	-na,	1r	.	[1d	An-
=123	=123	=123	=123	=123	=123	=123	=123	=123	=123
0AA	Ma-	0E	.	[0A	Ma-	0r	.	2d/]	.
.	.	.	.	.	.	.	.	4c#i/	.
.	.	.	.	.	.	.	.	4B/	.
.	.	.	.	.	.	.	.	1c#i	.
=124	=124	=124	=124	=124	=124	=124	=124	=124	=124
[0DD	-ter	1D	-na,	1A]	.	0r	.	1d	-na,
.	.	1F	.	1D	.	.	.	[1a	Ma-
=125	=125	=125	=125	=125	=125	=125	=125	=125	=125
1DD]	.	[0D	Ma-	1A	.	0r	An-	1a]	.
1GG	tu-	.	.	1B-i	.	.	.	1d	-ter
=126	=126	=126	=126	=126	=126	=126	=126	=126	=126
1DD	-a,	0D]	.	1A	-ter	1d	-na	1a	tu-
1GG	.	.	.	2r	.	1G	.	1b-i	.
.	.	.	.	[2G/	tu-	.	.	.	.
=127	=127	=127	=127	=127	=127	=127	=127	=127	=127
1r	.	1D	-ter	2G/]	.	1d	Ma-	1a	-a,
.	.	.	.	2F/	.	.	.	.	.
1C	de	2r	.	1G	-a,	1e	-ter	1g	.
.	.	2C/	tu-	.	.	.	.	.	.
=128	=128	=128	=128	=128	=128	=128	=128	=128	=128
2BB/	qua	2D\	.	0r	.	2d\	tu-	0r	.
1AA	si-	2AA/	.	.	.	2c\	-a,	.	.
.	.	1BB	-a,	.	.	1d	.	.	.
2GG#i/	-ne,	.	.	.	.	.	.	.	.
=129	=129	=129	=129	=129	=129	=129	=129	=129	=129
1AA	ma-	1AA	de	1c	de	0r	.	0r	.
2EE/	-cu-	2GG/	qua	2B\	qua	.	.	.	.
2FF/	.	2AA/	si-	[2A/	si-	.	.	.	.
=130	=130	=130	=130	=130	=130	=130	=130	=130	=130
1EE	-la	1BB	.	2A/]	.	2r	de	1r	.
.	.	.	.	2G#i/	.	[1.e	.	.	.
1r	.	1AA	-ne,	1A	-ne,	.	.	1cc	de
=131	=131	=131	=131	=131	=131	=131	=131	=131	=131
1r	.	0r	.	0r	.	2e\]	qua	2b\	qua
.	.	.	.	.	.	2c\	si-	1a	si-
1EE	tu-	.	.	.	.	1B	-ne,	.	.
.	.	.	.	.	.	.	.	2g#i/	.
=132	=132	=132	=132	=132	=132	=132	=132	=132	=132
2FF/	-a	2AA/	ma-	1r	.	2A/	ma-	2a/	-ne,
2GG/	.	2BB/	.	.	.	2d\	.	2d/	ma-
2FF/	ca-	2AA/	.	2A/	ma-	4c\	.	2a/	.
.	.	.	.	.	.	4A/	-cu-	.	.
2GG/	-ro	2GG/	.	2D/	-cu-	2d\	-la	2b-i\	-cu-
=133	=133	=133	=133	=133	=133	=133	=133	=133	=133
2AA/	ca-	2C/	.	2A/	-la	2c\	tu-	2a/	-la
2EE/	-ro	2BB/	.	2B\	.	2d\	.	4g/	tu-
.	.	.	.	.	.	.	.	4f/	.
1AA	pro-	1C	-cu-	2r	.	2c\	.	4e/	.
.	.	.	.	.	.	.	.	4d/	.
.	.	.	.	[2A/	ma-	2e\	-a	4c/	.
.	.	.	.	.	.	.	.	4B/	.
=134	=134	=134	=134	=134	=134	=134	=134	=134	=134
2r	.	1D	-la	2A/]	.	1d	ca-	2A/	-a
1D	-ca-	.	.	2D/	-cu-	.	.	2.a/	ca-
.	.	1r	.	2A/	-la	[1d	.	.	.
.	.	.	.	.	.	.	.	4g/	.
2GG/	.	.	.	2B-i\	tu-	.	.	[2g/	.
=135	=135	=135	=135	=135	=135	=135	=135	=135	=135
1D	-ro	2r	.	1A	-a	1d]	-ro	2g/]	.
.	.	2D\	tu-	.	.	.	.	2f/	.
1r	.	2E\	.	2r	.	2B\	.	2g/	-ro
.	.	2F\	-a	2D/	ca-	2A/	pro-	[2a/	pro-
=136	=136	=136	=136	=136	=136	=136	=136	=136	=136
0r	.	1D	ca-	2A/	.	2d\	-ces-	2a/]	.
.	.	.	.	2B-i\	.	1d	-sit	2d/	.
.	.	1AA	-ro	1A	-ro	.	.	2.e/	-ces-
.	.	.	.	.	.	2c\	.	.	.
.	.	.	.	.	.	.	.	4f/	.
=137	=137	=137	=137	=137	=137	=137	=137	=137	=137
2C/	Vir-	0r	.	2r	.	2r	Vir-	2g/	-sit
2D\	-gi-	.	.	1A	pro-	2A/	.	2f/	Vir-
2AA/	-ne-	.	.	.	.	2c\	-gi-	2e/	-gi-
2D\	.	.	.	2D/	.	2d\	-ne-	[2f/	-ne-
=138	=138	=138	=138	=138	=138	=138	=138	=138	=138
1AA	-a,	2r	.	2.A/	-ces-	1c	-a,	2f/]	.
.	.	2C/	pro-	.	.	.	.	1e	-a,
.	.	.	.	4G/	.	.	.	.	.
2r	.	1D	-ces-	1F	-sit	1A	Vir-	.	.
2DD/	A-	.	.	.	.	.	.	2d/	A-
=139	=139	=139	=139	=139	=139	=139	=139	=139	=139
2AA/	.	2C/	-sit	1E	Vir-	2c\	.	[0el	-men.
2.C/	.	2.E\	Vir-	.	.	4B\	.	.	.
.	.	.	.	.	.	4A/	.	.	.
.	.	.	.	4C/	.	2G/	-gi-	.	.
4BB/	.	4D\	.	4D/	.	.	.	.	.
2AA/	.	2C/	-gi-	4E/	-gi-	2A/	-ne-	.	.
.	.	.	.	4F/	.	.	.	.	.
=140	=140	=140	=140	=140	=140	=140	=140	=140	=140
2GG/	.	2BB/	-ne-	2G/	-ne-	2B\	-a,	0e_	.
2AA/	.	2AA/	-a,	2C/	-a,	2E/	A-	.	.
[1EE/l	-men.	2GG/	A-	2.G/	A-	2B\	.	.	.
.	.	2r	.	.	.	2c\	-men.	.	.
.	.	.	.	4E/	.	.	.	.	.
=141	=141	=141	=141	=141	=141	=141	=141	=141	=141
0EE/]	.	0BB/l	-men.	0E/l	-men.	0B\l	.	0e/]	.
==	==	==	==	==	==	==	==	==	==
*-	*-	*-	*-	*-	*-	*-	*-	*-	*-
!!!RDF**kern: l=long note in original notation
!!!RDF**kern: i=editorial accidental
!!!RDF**kern: V=start of tuplet marker
!!!RDF**kern: Z=end of tuplet marker
!!!ENC:	Jesse Rodin (8/2012)
!!!END:	2012/08/11/
!!!EED:	Jesse Rodin
!!!EEV:	2012/08/12/
!!!ONB:	Translated from MusicXML and edited on 2012/08/12/ by Craig Sapp
!!muse2ps: C^@{COM}^i2I150v85,85,85,85,130Q8c105
